!!!COM: Alban (Maria Johannes) Berg
!!!OTL: [T434_Ber-w6p16-17m10-22]
**kern	**dynam	**kern	**dynam	**kern	**dynam	**kern	**dynam
*part4	*part4	*part3	*part3	*part2	*part2	*part1	*part1
*staff4	*	*staff3	*	*staff2	*	*staff1	*
*I"Violoncello	*	*I"Viola	*	*I"Violin II	*	*I"Violin I	*
*I'Vc.	*	*I'Vla.	*	*I'Vln. II	*	*I'Vln. I	*
*clefF4	*	*clefG2	*	*clefG2	*	*clefG2	*
*k[]	*	*k[]	*	*k[]	*	*k[]	*
*C:	*	*C:	*	*C:	*	*C:	*
!!!ONB: The score provides a 3/8 time signature in addition to the dashed barlines to indicate rhythmic grouping
*M9/8	*	*M9/8	*	*M9/8	*	*M9/8	*
!!LO:REH:t=10
=1	=1	=1	=1	=1	=1	=1	=1
!!LO:TX:t=[eighth]=[eighth] von früher. Der halbe 3/4 (resp. 6/8) Takt ist gleich dem jetzigen 3/8 Takt, so daβ die Achteln, wie auch im Folgenden, gleich bleiben.
!	!LO:DY:rj	!	!LO:DY:rj	!	!LO:DY:rj	!	!LO:DY:rj
(4a-Xv	ffppp <	8ffL]	fp >	(4an'	ffppp <	(4ee-X'v	ffppp <
.	.	8een	.	.	.	.	.
[8A-X'	[[	8ddJ)j	]	[>8An'	[[	[8e-X'	[[
=:	=:	=:	=:	=:	=:	=:	=:
!LO:TX:t=P:problem:dashed barline	!	!	!	!	!	!	!
8A-]	pp >	(4fn^	.	8A']	pp >	8e-]	pp >
4G-X')	.	.	<	4B-X')	.	4en')	.
.	]]	8gn	[[	.	]	.	]
=:	=:	=:	=:	=:	=:	=:	=:
(4F-X'u	.	8.b-X~L)	>	(4An'u	.	(16e-X^uLL	pp
.	.	.	.	.	.	16dnJJ	>
.	<	.	]	.	<	4d-X')	.
.	.	(16enL	.	.	.	.	.
[<8E-X'	.	16f#X	<	8A-X'	.	.	]
.	[[	16anJJ	[[	.	[[	.	.
=2	=2	=2	=2	=2	=2	=2	=2
!	!	!LO:TX:b:i:t=molto	!	!	!	!	!
8E-]	.	4.a-X)	>	L8Gn')	p >	(16cn^uLL	.
.	>	.	.	.	]	16BnJJ	>
!	!	!	!	!LO:TX:b:i:t=espr. molto	!	!	!
4Dn')	.	.	.	16ra	.	4B-X')	.
.	.	.	.	(16an	f >	.	]
.	]]	.	]	[>8bnJ	.	.	.
*	*	*clefC3	*	*	*	*	*
=:	=:	=:	=:	=:	=:	=:	=:
!	!LO:DY:t=( %s )	!LO:TX:a:rj:t=zurücktreten	!	!	!	!	!LO:DY:t=( %s )
(4C#X'v	pp <	(4gn'v	pp ] <	16bLL])	.	(4e-X'v	pp <
.	.	.	.	(16ccnJ	pp ]	.	.
.	.	.	.	[8ddn	<	.	.
[8Cn'	.	[8f#X'	.	16ddL])	.	[8a-X'	.
.	[[	.	.	(16eenJJ	.	.	.
=:	=:	=:	=:	=:	=:	=:	=:
!LO:TX:b:i:t=poco	!	!LO:TX:b:i:t=poco	!	!	!	!LO:TX:b:i:t=poco	!
8C]	.	8f#]	[	16ffnLL	.	8a-]	[
.	.	.	.	16aan	.	.	.
4BBn')	] > ]	4fn')	] > ]	16eeen'J)	[	4dd-X')	> ]
.	.	.	.	16r	.	.	.
.	.	.	.	[8eee^J	p	.	.
!!linebreak:original
=3	=3	=3	=3	=3	=3	=3	=3
!LO:TX:a:i:t=poco espr.	!	!LO:TX:a:i:t=poco espr.	!	!	!	!	!
(16BB-XLL	<	4cn^	p	8eee]	.	4ddn'	.
16Dn	.	.	.	.	.	.	.
16An'J)	[	.	.	4eeen^	.	.	.
16r	.	.	.	.	.	.	<
!	!	!	!	!	!	!LO:TX:B:a:t=poco accel.———	!
[8AJ	>	([8c^	<	.	.	[8dd#X'	.
=:	=:	=:	=:	=:	=:	=:	=:
8AL]	]	8cL]	[	4eee^	.	8dd#]	.
(16AA-XL	<	8B-X	.	.	.	4een'	.
16Cn	.	.	.	.	.	.	.
16Gn'JJ)	[	8A-XJ)	.	([8eee^	<	.	.
16r	.	.	.	.	.	.	.
=:	=:	=:	=:	=:	=:	=:	=:
(16GG-XLL	p <	(4Cn	<	8eeeL]	[	4ffn'	.
16BB-	.	.	.	.	.	.	.
16Fn')	.	.	.	8dddn	>	.	.
(16EEn	.	.	.	.	.	.	.
16GG#X	.	8C#X	.	8cccnJ)	.	8ff#X'	[
16Dn'JJ)	[	.	.	.	]]	.	.
=4	=4	=4	=4	=4	=4	=4	=4
*M6/8	*	*M6/8	*	*M6/8	*	*M6/8	*
!!LO:TX:t=[eighth]=[eighth]
!	!	!	!	!	!	!	!LO:DY:b:i:t=%s espr.
(16DDn^LL	f >	8.EnL)	[ >	(4ee-X	mf	(16ggnLL	f <
16DD-XJJ	.	.	.	.	.	16bbn	.
4CC')	.	.	.	.	.	16fff#X'J)	[
.	]	(16E-XL	f ] <	.	<	16r	.
.	.	16Fn	.	8ffn	.	[8fff#^J	>
.	.	16A-XJJ	[[	.	.	.	.
!!LO:REH:t=20
=:	=:	=:	=:	=:	=:	=:	=:
(16EEn^LL	f ] >	8.GnL)	>	8bb-X'L)	f [	8fff#']	.
16EE-XJJ	.	.	.	.	.	.	.
4DDn')	.	.	.	(16aanL	<	4fff#y^	p ]
.	]	(16F#XL	] <	16ccc#X	.	.	.
.	.	16G#X	.	16ggg#X'JJ)	[	.	.
.	.	16cnJJ	[	16r'	.	.	.
=5	=5	=5	=5	=5	=5	=5	=5
*M3/8	*	*M3/8	*	*M3/8	*	*M3/8	*
!!LO:TX:t=[eighth]=[eighth]
!	!	!	!	!	!LO:DY:t=subito %s	!	!
(16GGn^LL	f <	16Bn'^LL)	>	8.ggg#XL	p	(16bbnLL	f <
16FF#XJ	>	(16B-X	]]	.	.	16ddd#X	.
8FFn')	]	16cn	<	.	.	16aaa#X'J)	.
.	.	16en	[[	(16cccnL	ff <	16r	[
(16BB^L	>	16e-X'^)	>	16eeen	.	8aaa#J	mf
16BB-XJJ	.	(16dnJJ	]]	16bbbn'JJ	[	.	.
=6	=6	=6	=6	=6	=6	=6	=6
!!LO:TX:B:t=riten.
!	!	!LO:TX:b:i:t=molto cresc.	!	!LO:TX:t=P:problem:beamed tremolo		!	!	!
!	!	!LO:TUP:a:r=8	!	!	!	!	!
16AAn'LL)	]	24enLL	<	16r)	.	(16ddd-XLL	.
.	.	24a-X	[[	.	.	.	<
*	*	*	*	*tremolo	*	*	*
(16F#X^	>	.	>	32cn 32ccnLLL	ff <	16fffn	.
.	.	24gn'J)	]]	.	.	.	.
.	.	.	.	32cn 32ccn	.	.	.
!	!	!LO:TUP:a:r=8	!	!	!	!	!
16Fn	.	(24f#XL	<	32cn 32ccn	.	16ccccn')	.
.	.	.	.	32cn 32ccnJJJ	.	.	.
.	.	24g#X	.	.	.	.	.
16EnJJ)	]	.	.	32en 32eenLLL	.	(16ddd#X	.
.	.	24b#XJ	[	.	.	.	.
.	.	.	.	32en 32een	.	.	.
!	!	!LO:TUP:r=8	!	!	!	!	!
24c#X^LL	<	24bn'L)	> ]	32en 32een	.	16fff#X	.
.	.	.	.	32en 32eenJJJ	.	.	.
24cn^	.	(24b-vXi	<	.	.	.	[
.	.	.	.	64bn 64bbnLLLL/	.	16cccc#X'JJ)	.
.	.	.	.	64bn 64bbn	.	.	.
24Bn^JJ	[	24ddnJJ	[	.	.	.	.
.	.	.	.	64bn 64bbn	.	.	.
.	.	.	.	64bn 64bbnJJJJ	[[	.	.
*	*	*	*	*Xtremolo	*	*	*
=	=	=	=	=	=	=	=
*-	*-	*-	*-	*-	*-	*-	*-
!!!system-decoration: [(s1,s2,s3,s4)]
!!!RDF**kern: > = above
!!!RDF**kern: < =below
!!!RDF**kern: i = marked note, color="hotpink", text="extra("
!!!RDF**kern: j = marked note, color="magenta", text="extra)"
!!!EED:Jason Lee
!!!EEV:2022/01/27
